X:1
T:Kars, 12.11.12.11 D
T:Kars, 12.11.12.11 D
T:William James Kirkpatrick, 1899
T:Public Domain Courtesy of the Cyber Hymnal™
C:William James Kirkpatrick, 1899
Z:Public Domain
Z:Courtesy of the Cyber Hymnal™
%%score ( 1 2 ) ( 3 4 )
L:1/8
Q:1/4=86
M:6/8
K:F
V:1 treble 
V:2 treble 
V:3 bass 
V:4 bass 
V:1
 C | C[CF][CF] [CF][CG][FA] | [EG][EG][EG] [EG][FA][GB] | [FA][Fc][Fc] [Fc][FA][CF] | %4
 [=B,D][B,G][B,F] [CE]2 C | C[CF][CF] [CF][CG][FA] | [EG][EG][EG] [EG][GB][GB] | %7
 [FA][Fc][Fc] [Fc][FA][CF] | [DG]D[CE] [CF]2 [FA] | [EG]>[EG][EG] [EG][CE][DF] | %10
 [Ec]>[Ec][Ec] [Ec][EG][Ec] | [Ge]>[Ge][Ge] [Ge][Gd][Gc] | [Fd][FA][F=B] [Ec]2 [G_B] | %13
 [FA]>[FA][FA] [FA][GB][Ac] | [FB]>[FB][FB] [FB][Fc][Fd] | [Fc]>[Fc][Fc] [Fc][FA][CF] | %16
 [DG]D[CE] [CF]2 |] %17
V:2
 C | C x5 | x6 | x6 | x5 C | C x5 | x6 | x6 | x D x4 | x6 | x6 | x6 | x6 | x6 | x6 | x6 | x D x3 |] %17
V:3
 [F,A,] | [F,A,][F,A,][F,A,] [F,A,][F,B,][F,C] | [C,C][C,C][C,C] [C,C][C,C][C,C] | %3
 [F,C][F,A,][F,A,] [F,A,][F,C][F,A,] | G,G,[G,,G,] [C,G,]2 [E,B,] | %5
 [F,A,][F,A,][F,A,] [F,A,][F,B,][F,C] | [C,C][C,C][C,C] [C,C][C,C][C,C] | %7
 [F,C][F,A,][F,A,] [F,A,][F,C][F,A,] | [B,,B,][B,,B,][C,B,] [F,A,]2 [F,C] | %9
 [C,C]>[C,C][C,C] [C,C][C,G,][C,C] | [C,G,]>[C,G,][C,G,] [C,G,][C,G,][C,G,] | %11
 [C,C]>[C,C][C,C] [C,C][D,=B,][E,C] | [F,A,][F,D][G,D] [C,C]2 [C,C] | %13
 [F,C]>[F,C][F,C] [F,C][F,C][F,C] | [B,,D]>[B,,D][B,,D] [D,B,][C,A,][B,,B,] | %15
 [F,A,]>[F,A,][F,A,] [F,A,][F,C][F,A,] | [B,,B,][B,,B,][C,B,] [F,A,]2 |] %17
V:4
 x | x6 | x6 | x6 | G,G, x4 | x6 | x6 | x6 | x6 | x6 | x6 | x6 | x6 | x6 | x6 | x6 | x5 |] %17

